PortfolioPage/assets/scroll-down.svg

<svg xmlns="http://www.w3.org/2000/svg" width="50" height="80" fill="none">
  <path stroke="#696969" stroke-width="3" d="M25 1.66667c-6.6667 0-12.5 5.83333-12.5 12.50003v19.1666c0 6.6667 5.8333 12.5 12.5 12.5S37.5 40 37.5 33.3333V14.1667C37.5 7.5 31.6667 1.66667 25 1.66667Z"/>
  <path stroke="#696969" stroke-linecap="round" stroke-width="4" d="M25 13.3333v5"/>
  <path stroke="#696969" stroke-linecap="round" stroke-width="3" d="m16.6667 56.6667 6.5655 6.5656c.4689.4688 1.1047.7322 1.7678.7322.663 0 1.2989-.2634 1.7678-.7322l6.5655-6.5656M16.6667 65l6.5655 6.5656c.4689.4688 1.1047.7322 1.7678.7322.663 0 1.2989-.2634 1.7678-.7322L33.3333 65"/>
</svg>

<svg width="50" height="80" viewBox="0 0 50 80" fill="none" xmlns="http://www.w3.org/2000/svg">
    <path d="M25 1.66667C18.3333 1.66667 12.5 7.5 12.5 14.1667C12.5 20.8333 12.5 26.6667 12.5 33.3333C12.5 40 18.3333 45.8333 25 45.8333C31.6667 45.8333 37.5 40 37.5 33.3333C37.5 26.6667 37.5 20.8333 37.5 14.1667C37.5 7.5 31.6667 1.66667 25 1.66667Z" stroke="#696969" stroke-width="3"/>
    <path d="M25 13.3333V18.3333" stroke="#696969" stroke-width="4" stroke-linecap="round"/>
    <path d="M16.6667 56.6667L23.2322 63.2323C23.7011 63.7011 24.3369 63.9645 25 63.9645C25.663 63.9645 26.2989 63.7011 26.7678 63.2323L33.3333 56.6667" stroke="#696969" stroke-width="3" stroke-linecap="round"/>
    <path d="M16.6667 65L23.2322 71.5656C23.7011 72.0344 24.3369 72.2978 25 72.2978C25.663 72.2978 26.2989 72.0344 26.7678 71.5656L33.3333 65" stroke="#696969" stroke-width="3" stroke-linecap="round"/>
</svg>
